X:1
N: Waltz medley #1
P: My Lily
C: Trad., from Jerry Holland
Z: arr. T. Traub, as played by Jerry Holland "Master Cape Breton Fiddler"
M: 3/4
L: 1/8
K: A
|: E2 | "A" A4 AA | "F#m" A4 Bc | "D" A2 G2 F2 | "A" E4 d2 | \
 "A" c4 BA | "F#m" c4 BA | "Bm" B2 c2 d2 | "E" e4 e2|
| "D" f3 f ed| "C#m" c2 e3 c| "D" d4 F2 | "E" E4 FG | \
 "D" A3 A GF| "A" E2 C3 d | "E" c2 c3 B| A4 :|
| ag | "A" a4 ag | "F#m" a4 (abc')| "D" a2 g2 f2 | "A" e4 d'2| \
  "A"c'4 ba|"F#m"c'4 ba| "Bm"b2 c'2 d'2| "E"e'4 e'2|
|"D" f'4 e'd'| "C#m" c'2 e'3 c'| "D"d'4 f2| "A"e4 fg| \
  "D"a4 gf|"A"e2 c2 d'2| "E"c'4 b2| "A"a4 |]
